color/mkr.svg

<!-- Generated by IcoMoon.io -->
<svg version="1.1" xmlns="http://www.w3.org/2000/svg" width="32" height="32" viewBox="0 0 32 32">
<title>mkr</title>
<path fill="#1abc9c" d="M32 16c0 8.837-7.163 16-16 16s-16-7.163-16-16c0-8.837 7.163-16 16-16s16 7.163 16 16z"></path>
<path fill="#fff" d="M7.838 12.056v10.444h-1.838v-14l9.708 7.027v6.973h-1.838v-6.077zM18.13 16.423v6.077h-1.838v-6.973l9.708-7.027v14h-1.838v-10.444z"></path>
</svg>

<svg height="32" width="32" xmlns="http://www.w3.org/2000/svg"><g fill="none" fill-rule="evenodd"><circle cx="16" cy="16" fill="#1abc9c" r="16"/><path d="M7.838 12.056V22.5H6v-14l9.708 7.027V22.5H13.87v-6.077zm10.292 4.367V22.5h-1.838v-6.973L26 8.5v14h-1.838V12.056z" fill="#fff" fill-rule="nonzero"/></g></svg>
